X: 59
T:Hop-picker's feast
T:1786
M:2/4
L:1/16
Z:Alf Warnock - alf0@rogers.com
B:Barnes p53
K:D
A2 | "D"d2A2 f2d2 | a4 gfed | "G"g4"A"fedc | "D"dcde d2A2 |
d2A2 f2d2 | a4 gfed | "G"g4"A"fedc |[1 "D"d6 :|[2 "D"d6z2 ||
|: "A"e2 z2 "D"f2 z2 | "A"g3f e2f2 | "(G)"gagf efed | "A"cdcB A2A2 |
"A"e2e2 "D"f2f2 | "A(G)"g3f "A"e2g2 | "D"f2a2 f2d2 | "A"a6A2 ||
"D"d2A2 f2d2 | a4 gfed | "G"g4"A"fedc | "D"dcde d2A2 |
d2A2 f2d2 | a4 gfed | "G"g4"A"fedc | "D"d6z2 :|
